X:1
T:Title
%%score 1 2
L:1/8
Q:1/4=108
M:4/4
K:Bb
V:1 treble nm="Grand Piano, Soprano"
V:2 bass nm="Choir Pad, �Tis a Glorious Church"
V:1
 [DF][DF] [DB]2 [DB]2 [DB]2 | [DF]2 [EG]2 [EB]2 [EG][DF]- | [DF]2 [DB]2 [DB]>[FB] [Fc]2 | %3
w: By~Arranged~by~E.~T.~Rinehart,~1901 * * * *|||
 [FB]>[Fd] [Fc]6 | [DB]2 [Fd]2 [Fd]2 [DB]2 | [DF]2 [EG]2 [EB]2 [EG][DF]- | %6
w: |||
 [DF]2 [DB]2 [DB]>[DB] [Fd]2 | [Ec]>[Fc] [DB]4 z2 | [DB][Ec] [Fd]2- [Fd][Ec] [DB]2- | %9
w: |||
 [DB][DF] [EG]2 [GB]>[EG] [EG][DF]- | [DF]2 [FB]2 [FB][FB] [Fc]2 | [FB][Bd] [Ac]6 | %12
w: |||
 [FB][Fc] [Fd]2- [Fd][Ec] [DB]2- | [DB]F [EG]2 [GB]>[EG] [EG][DF]- | [DF]2 [DB]2 [DB]>[DB] [Fd]2 | %15
w: |||
 [Ec]>[Ec] [DB]6- | [DB]2 z2 z4 |] %17
w: ||
V:2
 [B,,B,][B,,B,] [B,,F,]2 [B,,F,]2 [B,,F,]2 | [B,,B,]2 [E,B,]2 [E,G,]2 [B,,B,]2- | %2
 [B,,B,]2 [B,,F,]2 [B,,F,]>[D,B,] [F,A,]2 | [B,D]>B, [F,A,]6 | %4
 [B,,F,]2 [B,,B,]2 [B,,B,]2 [B,,F,]2 | [B,,B,]2 [E,B,]2 [E,G,]2 [B,,B,]2- | %6
 [B,,B,]2 [G,B,]2 [G,B,]>[G,B,] [F,B,]2 | [F,A,]>[F,A,] [B,,B,]4 z2 | %8
 [B,,B,][B,,B,] [B,,B,]2- [B,,B,][B,,F,] [B,,F,]2- | %9
 [B,,F,][B,,B,] [E,B,]2 [E,B,]>[E,B,] [B,,B,][B,,B,]- | [B,,B,]2 [B,D]2 [B,D][B,D] [F,E]2 | %11
 [F,D][F,F] [F,F]6 | [D,B,][F,A,] B,2- B,/ z/ [F,A,] [G,B,]2- | %13
 [G,B,][D,B,] [E,B,]2 [E,B,]>[E,B,] [B,,B,][B,,B,]- | [B,,B,]2 [G,B,]2 [G,B,]>[G,B,] [F,B,]2 | %15
 [F,A,]>[F,A,] [B,,B,]6- | [B,,B,]2 z2 z4 |] %17

